X: 10123
T: KISS THE COLD WINTER AWAY
Q: "Not too fast."
%R: air, jig, waltz
B: W. Hamilton "Universal Tune-Book" Vol. 1 Glasgow 1844 p.12 #3 (and p.13 #1)
S: http://imslp.org/wiki/Hamilton's_Universal_Tune-Book_(Various)
Z: 2016 John Chambers <jc:trillian.mit.edu>
M: 6/8
L: 1/8
K: F
% - - - - - - - - - - - - - - - - - - - - - - - - -
[|\
c>dc {d}c>BA | dBd d>fe | f2c d2B | cAF F3 |\
c>dc {d}cBA | dBd d>fe | f2c d2B | cAF F2c |\
c2G A2F | c3 zzG | A2B c>dA | AG2 zzc |
c2G A>GF | c3 zze | f2F G>AB | AFz z2c |\
c2G A2F | c3 zzG | A2B c>BA | AG2 zzc |\
c2G A>GF | c3 zze | f2F G>AB | AFz z2c |
d2B f2c | d2B f2c | d>fe d>c=B | c2z z2c |\
dBd cAc | BGB ABc | d>ef c>fe | f3 f2z |\
f>FB A>BG | f3 f3 | f>FB A>Gc | F3 z2z |]
% - - - - - - - - - - - - - - - - - - - - - - - - -

% (Continued from previous page)

%%sep 1 1 500
%%sep 1 1 500

